X: 8
T:Bare-Footed Quaker, Lichfield
M:6/8
L:1/8
A:Lichfield
P:A(A2B)5
K:G
P:A
DGG GFG |ABA AGF|GAB d>cB|AcB AGF |G3   E3|D3 G3||
P:B
Bdd d>dd|ede d3 |Bdd d>dd|ede d2c |
B>BB BAG|AcB AGF|GAB d>cB|AcB A>GF|G3   E3|D3 G3||
